X:367
T:Speed the Plough. RH.367
R:strathspey
S:Rev.R.Harrison’s MS,c1815,Cumbria
O:England
A:Temple Sowerby,Cumbria
Z:vmp.Simon Wilson. Review PJH, 2008.
M:C
L:1/8
Q:2/4=80
K:G
G2GB d>edB|d<gdB d>edB|\
c>dcA B>cBG|E<A A>G F<AAB|!
G2G>B d>edB|d<gdB d>edB|\
c>dB>c A>BAD|E>FG>A BGG2||!
gGgG gGdG|gGfG eGdG|\
c>dcA B>cBG|E<A AG F<AAd|!
B/A/G gG gG fG|ecGE dBGd|\
c>dB>c A>BGD|E>FGA BGGz|]

